X:115
T: Mrs.Conway's Chocolate Cake
C: BB
R: hornpipe
Q: 1/8=320
M: C|
L: 1/8
K: G
zD|"G"G2 BG "Em"EFGB|"Am"cA"G"BG "Am7"AGED|"G"G2 BG "Em"EFGg|"D7"fdcA "G"G3 D |
"G"G2 BG "Em"EFGB|"Am"(3cBA "G"BG "Am7"AGED|"G"GBdB "Am"ca (3a^ga|"D"fdef "G"g2 :|
Bc|"G"dbag "D"fedc|"G"BcdB "Am"cA (3ABA|"G"dbag "D"fedc|"G"(3Bcd "D"AF "G"G2 Bc |
"G"dbag "D"fedc|"G"BGGB "Am"cAAd|"Em7"edBd "C"gece|"D7"dAFA "G"G2 :|
